X:1
T:Title
%%score { ( 1 3 ) | ( 2 4 ) }
L:1/8
Q:1/4=100
M:4/4
K:G
V:1 treble nm="Grand Piano"
V:3 treble 
V:2 treble 
V:4 treble 
V:1
 d2 B2 A2 G2 | [DGB]2 [B,DG]2 [G,B,D]4 | [B,DG]>[B,DG] [B,DG]>[B,DG] [B,DG]2 [DGB]2 | %3
w: William~J.~Kirkpatrick * * *|||
 [^CGB]>[CGA] [CGA]>[CG] [DFA]2 [Fd]2 | d2 B2 A2 G2 | [DGB]2 [B,DG]2 [G,B,D]4 | %6
w: |||
 [G,CE]>[G,CE] [G,EG]2 [G,B,D]>[G,B,D] [B,DG]>[DGB] | [CFA]4 [B,DG]4 | [CEG]2 [Ec]2 [Ec]2 [Ge]2 | %9
w: |||
 e2 d2 d4 | [Fd]2 [FA]2 [FA]2 [Ac]2 | [Ac]2 B2 B4 | B2 G2 G2 D2 |[M:5/4] E2 [EG]2 [EG]6 | %14
w: |||||
[M:4/4] D>D D2 G>G [^CEG]>[CGB] | [FA]4 z4 |] %16
w: ||
V:2
 [G,B,G]2 [G,DG]2[K:bass] [G,CD]2 [G,B,D]2 | G,,2 G,,2 G,,4 | G,>G, G,>G, G,2 G,2 | %3
 E,>E, E,>E, D,2 [D,A,]2 | [G,B,G]2 [G,DG]2[K:bass] [G,CD]2 [G,B,D]2 | G,,2 G,,2 G,,4 | %6
 C,>C, C,2 D,>D, D,>D, | D,4 G,,4 | C,2 [C,G,]2 [C,G,]2 [C,C]2 | [G,CG]2 [G,B,G]2 [G,B,G]4 | %10
 [D,A,]2 [D,D]2 [D,D]2 [D,D]2 | [G,D]2[K:treble] [G,DG]2 [G,DG]4 | %12
 [G,DG]2 [G,B,D]2 [G,B,D]2[K:bass] [B,,G,]2 |[M:5/4] [C,G,C]2 [C,G,]2 [C,G,]6 | %14
[M:4/4] [D,G,B,]>[D,G,B,] [D,G,B,]2 [E,B,E]>[E,B,E] A,,>A,, | z2 C2 G,,4 |] %16
V:3
 x8 | x8 | x8 | x8 | x8 | x8 | x8 | x8 | x8 | x8 | x8 | x8 | x8 |[M:5/4] x10 |[M:4/4] x8 | %15
 D2 z2 [B,DG]4 |] %16
V:4
 x4[K:bass] x4 | x8 | x8 | x8 | x4[K:bass] x4 | x8 | x8 | x8 | x8 | x8 | x8 | x2[K:treble] x6 | %12
 x6[K:bass] x2 |[M:5/4] x10 |[M:4/4] x8 | D,4 z4 |] %16

